X:1
%
T:Diablinoaden, La
T:No. 23. Avant deux. Eté (2nd figure, quadrille)
M:2/4
L:1/8
R:Quadrille
S:French music manuscript collection (c. 1826), 110 quadrilles
O:United States?
F: https://archive.org/details/FrenchMusicBook
Z:AK/Fiddler’s Companion
K:Dmin
(D/^C/)D/C/ DE|(F/E/F/)E/ FG|Ad ^cd|(e/d/^c/B/) (A/G/F/E/)|
(D/^C/)D/C/ DE|(F/E/)F/E/ FG|Ad (^c/d/e/)c/|dd d2||
|:(a/^g/a/g/) a^f|(=g/^f/g/f/) ge|(f/e/f/)e/ fd|(e/d/)^c/B/ AA|
(a/^g/a/)g/ a^f|(g/^f/g/)f/ ge|=fd e^c|d2A2:|]

